exported-svg/droplet.svg

<svg height="24" viewBox="0 0 24 24" width="24" xmlns="http://www.w3.org/2000/svg"><path d="m11.1413987 2.14675935c.1952114-.19555691.5120351-.19569698.7074193-.00031274l5.6598841 5.65988415c2.4321382 2.43054454 3.1603834 6.08698314 1.8450714 9.26389944-1.3153119 3.1769163-4.4150728 5.2484777-7.8535089 5.2484777s-6.538197-2.0715614-7.85350895-5.2484777c-1.31531196-3.1769163-.58706674-6.8333549 1.84464309-9.26347085zm.3541786 1.06066016-5.2968752 5.30624973c-2.14600429 2.14459806-2.7885736 5.37086746-1.62800422 8.17402886 1.16056937 2.8031615 3.89565251 4.6310098 6.92956672 4.6310098 3.0339142 0 5.7689973-1.8278483 6.9295667-4.6310098 1.1605694-2.8031614.5180001-6.0294308-1.6281201-8.17414471z"/></svg>

<?xml version="1.0" encoding="UTF-8"?>
<svg width="24px" height="24px" viewBox="0 0 24 24" version="1.1" xmlns="http://www.w3.org/2000/svg" xmlns:xlink="http://www.w3.org/1999/xlink">
    <!-- Generator: Sketch 55.2 (78181) - https://sketchapp.com -->
    <title>droplet</title>
    <desc>Created with Sketch.</desc>
    <g id="droplet" stroke="none" stroke-width="1" fill="none" fill-rule="evenodd">
        <path d="M11.1413987,2.14675935 C11.3366101,1.95120244 11.6534338,1.95106237 11.848818,2.14644661 L17.5087021,7.80633076 C19.9408403,10.2368753 20.6690855,13.8933139 19.3537735,17.0702302 C18.0384616,20.2471465 14.9387007,22.3187079 11.5002646,22.3187079 C8.0618285,22.3187079 4.9620676,20.2471465 3.64675565,17.0702302 C2.33144369,13.8933139 3.05968891,10.2368753 5.49139874,7.80675935 L11.1413987,2.14675935 Z M11.4955773,3.20741951 L6.1987021,8.51366924 C4.05269781,10.6582673 3.4101285,13.8845367 4.57069788,16.6876981 C5.73126725,19.4908596 8.46635039,21.3187079 11.5002646,21.3187079 C14.5341788,21.3187079 17.2692619,19.4908596 18.4298313,16.6876981 C19.5904007,13.8845367 18.9478314,10.6582673 16.8017112,8.51355339 L11.4955773,3.20741951 Z" id="Shape" fill="#000000" fill-rule="nonzero"></path>
    </g>
</svg>
